X:1
T: Mr. G. Ironside (Bellebeg)
C:Alexander Walker
R:Strathspey
Q: 128
K:E
M:4/4
L:1/16
|:c2|B3E B3G c3G Ac3|BE3 B3G B3c e3f|g3f ec3 B3c e3c|BE3 B3G F4 E2c2|
B3E B3G c3G Ac3|BE3 B3G B3c e3f|g3f ec3 B3c e3c|BE3 B3G F4 E2B2|
e4 b3f g3e ce3|BG3 e3G AGFE CE3|B,3E C3E B,3E A3c|BE3 B3G F4 E3B|
e4 b3g agfe c3e|B3E cBAG BE3 E3d|c3e B3c G3B F3a|ge3 b3g f4 e2:|
